assets/icons/D-4.svg

<svg viewBox="0 0 105.82 105.82" xmlns="http://www.w3.org/2000/svg"><circle cx="52.91" cy="52.91" fill="#f38134" r="52.91"/><g fill="#fff"><path d="m52.91 97.27a44.36 44.36 0 1 1 44.36-44.36 44.41 44.41 0 0 1 -44.36 44.36zm0-85.72a41.36 41.36 0 1 0 41.36 41.36 41.41 41.41 0 0 0 -41.36-41.36z"/><path d="m40 70.92v-36h13.07a18.68 18.68 0 0 1 9.84 2.41 15.23 15.23 0 0 1 5.93 6.5 20.46 20.46 0 0 1 2 9 19.82 19.82 0 0 1 -2.18 9.54 15.48 15.48 0 0 1 -6.16 6.29 18.93 18.93 0 0 1 -9.41 2.23zm23.77-18.06a14.24 14.24 0 0 0 -1.26-6.16 9.76 9.76 0 0 0 -3.66-4.16 10.63 10.63 0 0 0 -5.78-1.54h-6.07v23.78h6.09a10.41 10.41 0 0 0 5.83-1.55 9.83 9.83 0 0 0 3.61-4.23 14.47 14.47 0 0 0 1.24-6.14z"/></g></svg>

<svg id="Layer_1" data-name="Layer 1" xmlns="http://www.w3.org/2000/svg" viewBox="0 0 105.82 105.82"><defs><style>.cls-1{fill:#f38134;}.cls-2{fill:#fff;}</style></defs><circle class="cls-1" cx="52.91" cy="52.91" r="52.91"/><path class="cls-2" d="M52.91,97.27A44.36,44.36,0,1,1,97.27,52.91,44.41,44.41,0,0,1,52.91,97.27Zm0-85.72A41.36,41.36,0,1,0,94.27,52.91,41.41,41.41,0,0,0,52.91,11.55Z"/><path class="cls-2" d="M40,70.92v-36H53.07a18.68,18.68,0,0,1,9.84,2.41,15.23,15.23,0,0,1,5.93,6.5,20.46,20.46,0,0,1,2,9,19.82,19.82,0,0,1-2.18,9.54,15.48,15.48,0,0,1-6.16,6.29,18.93,18.93,0,0,1-9.41,2.23ZM63.77,52.86a14.24,14.24,0,0,0-1.26-6.16,9.76,9.76,0,0,0-3.66-4.16A10.63,10.63,0,0,0,53.07,41H47V64.78h6.09a10.41,10.41,0,0,0,5.83-1.55A9.83,9.83,0,0,0,62.53,59,14.47,14.47,0,0,0,63.77,52.86Z"/></svg>
